contributed-vectors/translate.svg

<svg xmlns="http://www.w3.org/2000/svg" xml:space="preserve" id="svg10" width="192" height="192" fill="none" version="1.1"><path id="path2" fill="#fff" d="M162 20H30c-5.523 0-10 4.477-10 10v132c0 5.523 4.477 10 10 10h132c5.523 0 10-4.477 10-10V30c0-5.523-4.477-10-10-10Z"/><path id="path6" fill="#98DC9A" d="M162 172c5.523 0 10-4.477 10-10L30 20c-5.523 0-10 4.477-10 10v132c0 5.523 4.477 10 10 10h132Z"/><path id="path8" fill="#000" fill-opacity=".8" d="M90.46 127h4.2L81.64 91h-4.26l-13.02 36h4.2l2.94-8.4h16.02l2.94 8.4Zm-17.7-12.06 6.78-19.38 6.72 19.38h-13.5Z" style="fill:#56595b;fill-opacity:1"/><style id="style853" type="text/css">.st0{fill:#fff}</style><path id="path4" fill="#000" fill-opacity=".8" d="m114.108 55.032-3.984-.144c0 .624-.048 1.488-.144 2.352-.432 4.128-1.392 11.904-1.392 18.48 0 6.096 1.296 12.912 2.688 17.184l3.504-1.056c-1.488-4.512-2.832-10.272-2.832-16.512 0-6.576.816-14.16 1.632-18.192.144-.672.336-1.536.528-2.112Zm-7.728 5.904c-2.064 0-6.24-.288-7.92-.576l.096 3.6c1.968.096 5.712.288 7.776.288 7.152 0 16.608-.72 23.52-1.92l-.048-3.552c-6.624 1.488-14.976 2.16-23.424 2.16Zm20.016 5.664-3.84-.96c-.048.768-.288 2.064-.48 2.784-2.208 7.776-6.144 12.96-10.416 16.704-3.072 2.688-6.192 4.032-8.592 4.032-1.776 0-2.736-.96-2.736-2.928 0-4.416 4.32-9.696 9.744-12.096 2.448-1.104 6-2.256 10.032-2.256 7.152 0 11.088 4.08 11.088 8.736 0 6.192-5.376 10.656-14.016 11.616l2.064 3.216c11.136-1.776 15.696-7.776 15.696-14.64 0-6.72-5.712-12-14.784-12-3.12 0-7.008.72-10.224 1.968-7.104 2.736-13.2 9.504-13.2 16.08 0 4.08 2.496 6 5.664 6 3.408 0 7.248-1.776 10.32-4.128 5.04-3.888 9.84-10.56 12.672-19.44.288-.768.72-2.064 1.008-2.688Z" style="fill:#56595b;fill-opacity:1"/></svg>

<?xml version="1.0" encoding="UTF-8" standalone="no"?>
<svg
   width="192"
   height="192"
   viewBox="0 0 192 192"
   fill="none"
   version="1.1"
   id="svg10"
   sodipodi:docname="translate.svg"
   xml:space="preserve"
   inkscape:export-filename="translate2.png"
   inkscape:export-xdpi="96"
   inkscape:export-ydpi="96"
   inkscape:version="1.2 (dc2aedaf03, 2022-05-15)"
   xmlns:inkscape="http://www.inkscape.org/namespaces/inkscape"
   xmlns:sodipodi="http://sodipodi.sourceforge.net/DTD/sodipodi-0.dtd"
   xmlns="http://www.w3.org/2000/svg"
   xmlns:svg="http://www.w3.org/2000/svg"><defs
     id="defs14" /><sodipodi:namedview
     id="namedview12"
     pagecolor="#505050"
     bordercolor="#eeeeee"
     borderopacity="1"
     inkscape:showpageshadow="0"
     inkscape:pageopacity="0"
     inkscape:pagecheckerboard="0"
     inkscape:deskcolor="#505050"
     showgrid="false"
     inkscape:zoom="1.2291667"
     inkscape:cx="11.79661"
     inkscape:cy="96"
     inkscape:window-width="1884"
     inkscape:window-height="1052"
     inkscape:window-x="36"
     inkscape:window-y="0"
     inkscape:window-maximized="1"
     inkscape:current-layer="svg10" /><path
     d="M162 20H30C24.4772 20 20 24.4772 20 30V162C20 167.523 24.4772 172 30 172H162C167.523 172 172 167.523 172 162V30C172 24.4772 167.523 20 162 20Z"
     fill="white"
     id="path2" /><path
     d="M162 172C167.523 172 172 167.523 172 162L30 20C24.4772 20 20 24.4772 20 30V162C20 167.523 24.4772 172 30 172H162Z"
     fill="#98DC9A"
     id="path6" /><path
     d="M90.4594 127H94.6594L81.6394 91H77.3794L64.3594 127H68.5594L71.4994 118.6H87.5194L90.4594 127ZM72.7594 114.94L79.5394 95.56L86.2594 114.94H72.7594Z"
     fill="black"
     fill-opacity="0.8"
     id="path8"
     style="fill:#56595b;fill-opacity:1" /><style
     type="text/css"
     id="style853">
	.st0{fill:#FFFFFF;}
</style><style
     type="text/css"
     id="style853-9">
	.st0{fill:#FFFFFF;}
</style><style
     type="text/css"
     id="style853-3">
	.st0{fill:#FFFFFF;}
</style><path
     d="M114.108 55.032L110.124 54.888C110.124 55.512 110.076 56.376 109.98 57.24C109.548 61.368 108.588 69.144 108.588 75.72C108.588 81.816 109.884 88.632 111.276 92.904L114.78 91.848C113.292 87.336 111.948 81.576 111.948 75.336C111.948 68.76 112.764 61.176 113.58 57.144C113.724 56.472 113.916 55.608 114.108 55.032ZM106.38 60.936C104.316 60.936 100.14 60.648 98.46 60.36L98.556 63.96C100.524 64.056 104.268 64.248 106.332 64.248C113.484 64.248 122.94 63.528 129.852 62.328L129.804 58.776C123.18 60.264 114.828 60.936 106.38 60.936ZM126.396 66.6L122.556 65.64C122.508 66.408 122.268 67.704 122.076 68.424C119.868 76.2 115.932 81.384 111.66 85.128C108.588 87.816 105.468 89.16 103.068 89.16C101.292 89.16 100.332 88.2 100.332 86.232C100.332 81.816 104.652 76.536 110.076 74.136C112.524 73.032 116.076 71.88 120.108 71.88C127.26 71.88 131.196 75.96 131.196 80.616C131.196 86.808 125.82 91.272 117.18 92.232L119.244 95.448C130.38 93.672 134.94 87.672 134.94 80.808C134.94 74.088 129.228 68.808 120.156 68.808C117.036 68.808 113.148 69.528 109.932 70.776C102.828 73.512 96.732 80.28 96.732 86.856C96.732 90.936 99.228 92.856 102.396 92.856C105.804 92.856 109.644 91.08 112.716 88.728C117.756 84.84 122.556 78.168 125.388 69.288C125.676 68.52 126.108 67.224 126.396 66.6Z"
     fill="black"
     fill-opacity="0.8"
     id="path4"
     style="fill:#56595b;fill-opacity:1" /></svg>
